!!!COM: Palestrina, Giovanni Perluigi da
!!!OPR: Missa In duplicibus minoribus (II)
!!!OMD: Credo
!!!OTL: Genitum non factum
**kern	**kern	**kern	**kern	**kern
*Ibass	*Itenor	*Itenor	*Icalto	*Icant
!Bassus	!Tenor 2	!Tenor 1	!Altus	!Cantus
*clefF4	*clefGv2	*clefGv2	*clefG2	*clefG2
*k[]	*k[]	*k[]	*k[]	*k[]
*E:phr	*E:phr	*E:phr	*E:phr	*E:phr
*M4/2	*M4/2	*M4/2	*M4/2	*M4/2
=37	=37	=37	=37	=37
0r	0r	1.A	1r	0r
.	.	.	[1e	.
.	.	2G	.	.
=38	=38	=38	=38	=38
0r	1r	2A	2e]	0r
.	.	2B	2d	.
.	[1A	2.c	2e	.
.	.	.	2f	.
.	.	4B	.	.
=39	=39	=39	=39	=39
0r	2A]	4c	2.e	2r
.	.	4A	.	.
.	2G	2B	.	1e
.	.	.	4d	.
.	2A	2c	2c	.
.	2B	2d	2B	2d
=40	=40	=40	=40	=40
0r	2c	2r	1A	2e
.	2.d	2D	.	2f
.	.	2.E	1G	1e
.	4c	.	.	.
.	[2c	.	.	.
.	.	4F	.	.
=41	=41	=41	=41	=41
0r	2c]	1G	2r	1d
.	2B	.	2.g	.
.	2c	1C	.	1c
.	.	.	4f	.
.	[2c	.	4e	.
.	.	.	4d	.
=42	=42	=42	=42	=42
0r	2c]	0r	2c	2.e
.	2A	.	2c	.
.	.	.	.	4e
.	2B	.	2d	2g
.	2c	.	2e	2g
=43	=43	=43	=43	=43
0r	2F	0r	2f	2a
.	2A	.	2c	2e
.	4D	.	1d	1f
.	4E	.	.	.
.	4F	.	.	.
.	4G	.	.	.
=44	=44	=44	=44	=44
2r	1A	2r	1c#	[0e
1A	.	2A	.	.
.	1E	1B	1r	.
2G	.	.	.	.
=45	=45	=45	=45	=45
1A	0r	1c	2r	1e]
.	.	.	1e	.
2G	.	2B	.	1r
2F	.	2A	2d	.
=46	=46	=46	=46	=46
2E	0r	2c	2e	2r
2D	.	2d	2f	1a
1E	.	1B	2.e	.
.	.	.	.	2g
.	.	.	8d	.
.	.	.	8e	.
=47	=47	=47	=47	=47
0r	0r	1A	2f	1a
.	.	.	4e	.
.	.	.	4d	.
.	.	2c	2e	2g
.	.	2d	2d	2f
=48	=48	=48	=48	=48
0r	0r	2A	2c	2e
.	.	2B	1d	2d
.	.	1A	.	1e
.	.	.	4c	.
.	.	.	4B	.
=49	=49	=49	=49	=49
2r	1.e	2r	4c	2r
.	.	.	4d	.
1C	.	1G	4e	1cc
.	.	.	4f	.
.	.	.	[1g	.
2GG	2d	2G	.	2b
=50	=50	=50	=50	=50
1C	1e	2.G	1g]	1cc
.	.	4A	.	.
2GG	2d	2B	2r	2b
2AA	2c	2E	[2e	2a
=51	=51	=51	=51	=51
2E	2B	2G#	2e]	2b
2AA	2A	1A	2e	2cc
1E	1B	.	1e	1b
.	.	4G#	.	.
.	.	4F#	.	.
=52	=52	=52	=52	=52
[0E	[0B	[0G#	[0e	[0b
=53	=53	=53	=53	=53
0E]	0B]	0G#]	0e]	0b]
*-	*-	*-	*-	*-
!!!CDT: 1525/^1526/-1594/2/2
!!!OCY: Italia
!!!AGN: Mass (Paraphrase)
!!!AST: renaissance, vocal
!!!ASW: Gregorian Mass
!!!PWK: Masses, Book Mantuan I
!!!RNB: Cadence finals: A
!!!YOR: Le Opere Complete, v. 18, p. 1
!!!YOO: Rome, Italy: Fratelli Scalera
!!!END: 1992//
!!!EED: John Miller
!!!YEC: Copyright 2000, John Miller
!!!YEN: United States of America
!!!YEM: Rights to all derivative electronic formats reserved.
!!!YEM: Refer to licensing agreement for further details.
!!!YEM: This file must be accompanied by the licensing agreement.
!!!YEM: A copy of the licensing agreement may be found at http://www.music-cog.ohio-state.edu/HumdrumDatabases/Palestrina/license.txt
!!!EMD: converted to Humdrum by Bret Aarden
